X:1
T:Greenwich Witch
T:Greenwich Witch
T:ZEZ CONFREY
T:Copyright 1921 by Jack Mills Inc.
T:Copyright 1921 by Jack Mills Inc.
T:Copyright 1921 by Jack Mills Inc.
T:Copyright 1921 by Jack Mills Inc.
C:ZEZ CONFREY
Z:Copyright 1921 by Jack Mills Inc.
%%score { ( 1 4 ) | ( 2 3 ) }
L:1/8
Q:1/4=190
M:2/2
K:Eb
V:1 treble nm="Piano" snm="Pno."
V:4 treble 
V:2 bass 
V:3 bass 
V:1
"^Allegro" x8 | (3DE=E F^F- FG ^G2 | =A2 B =B2 c ^c2 | d2 z2 !>![Adb]2 z2 |: %4
 (3[eg]fe cB/c/ .B.G!>![ce].B | .G!>![ce].B.G .[c=e].B.G._G | (F^FG^G =A !>![df]2 (A) | %7
 [ce]4-) [ce]2 z2 | (3[_ac']ba fc/d/ .c.A!>![df].c | .A!>![df].c.A !>![df].c.A.B | %10
 [Ge]3 !>![=Aeg]- [Aeg][df] [ce]2 | [_Adf]4- [Adf]2 z2 | (3[eg]fe cB/c/ .B.G!>![ce].B | %13
 .G!>![ce].B.G .[c=e].B.G._G | (F^FG^G =A !>![df]2 (A) | [ce]4-) [ce]2 z2 | g'3 f'- f'2 f'2 | %17
 d'2- d'g- [Bg][=A^f] [_A=f]2 | [Ge]2 !>![FAe]2- [FAe]_c !>![FAe]2 |1 [GBe]2 z2 z4 :|2 %20
 !>![GBe]2 z2 !>![F=Bf]4 |: .[eg].c!>![ac'].g .f.[eg].d.c | .[ac'].g.f.[eg] .d.c.[ac'].g | %23
 .f.[eg].d.c .[Ac].G.F.E | [DG=B]8 | ([^A=e][=Bd]G[^d=a] !>![=eg]2) ([Ae][Bd] | %26
 G[^d=a] !>![=eg]2) ([^Ae][=Bd]G[da] | !>![=eg]2) ([^Ae][=Bd] G[^d=a] !>![eg]2) | %28
 ([^A=e][=Bd]G[^d=a] !>![eg]4) | .[_eg].c!>![ac'].g .f.[eg].d.c | .[ac'].g.f.[eg] .d.c.[ac'].g | %31
 .f.[eg].d.c .[Ac].G.F.E | [DG=B]8 | ([^A=e][=Bd]G[^d=a] !>![=eg]2) ([Ae][Bd] | %34
 G[^d=a] !>![=eg]2) [^Ae][=Bd]G[da] | !>![=eg]2 !>![G_e]2 !>![Ge] !>![Fd]2 !>![EGc]- | %36
 [EGc]2 z2 !>![cegc']2 x2 :| x8 | (3DE=E F^F- FG ^G2 | =A2 B =B2 c ^c2 | d2 z2 !>![Adb]2 z2 || %41
 (3[eg]fe cB/c/ .B.G!>![ce].B | .G!>![ce].B.G .[c=e].B.G._G | (F^FG^G =A !>![df]2 (A) | %44
 [ce]4-) [ce]2 z2 | (3[_ac']ba fc/d/ .c.A!>![df].c | .A!>![df].c.A !>![df].c.A.B | %47
 [Ge]3 !>![=Aeg]- [Aeg][df] [ce]2 | [_Adf]4- [Adf]2 z2 | (3[eg]fe cB/c/ .B.G!>![ce].B | %50
 .G!>![ce].B.G .[c=e].B.G._G | (F^FG^G =A !>![df]2 (A) | [ce]4-) [ce]2 z2 | g'3 f'- f'2 f'2 | %54
 d'2- d'g- [Bg][=A^f] [_A=f]2 | [Ge]2 !>![FAe]2- [FAe]_c !>![FAe]2 | [GBe]2 z2 !>![egbe']2 z2 || %57
[K:Ab]!p! z .=B,.[FG] z ._B,.[_FA]z.[B,FA] | z .^C.[G=A] z .=C.[_GB]z.[CGB] | %59
 z ._E.[=A=B] z .=D.[_Ac]z._B | [_DG_d]2 z2 !>![dge']2 z2 |:!mf!"^grazioso"{ef} e>=de>=e f>_ed>e | %62
 (3_ded c>B A>GF>E | C>EA>c e [ac']2 (c- | [cgb]4-) [cgb]2 [fa]2 | g3 f- f2 g2 | [_df]6 [d_f]2 | %67
 [ce]=de[ca]- [ca]2 [_db]2 | [cec']4- [cec']2 z e/f/ | e>=de>=e f>_ed>e | (3_ded c>B A>GF>E | %71
 (C>EA>c e) [ac']2 (c- | [cgb]4-) [cgb]2 [fa]2 | _g3 f- f2 e2 | =d3 d- d2 d2 | %75
 (E [ce]2) (E- [Ece]2) [_DB_d]2 | [CAc]2 z2 !>![Acea]2 z2 :| %77
V:2
 (3G,A,=A, B,=B,- B,C ^C2 | x8 | x8 | x2 z2 !>![B,,B,]2 z2 |: [E,,E,]2 [B,EG]2 B,,2 [B,EG]2 | %5
 [E,,E,]2 [B,E]2 [C,,C,]2 [B,C=E]2 | [F,,F,]2 [=A,_E]2 [G,,G,]2 [^G,,^G,]2 | %7
 [=A,,=A,]2 [F,,F,]2 [=E,,=E,]2 [_E,,_E,]2 | [D,,D,]2 [A,B,D]2 B,,2 [A,B,D]2 | %9
 [D,,D,]2 [A,B,D]2 [B,,,B,,]2 [A,B,D]2 | [E,,E,]2 [B,E]2 [F,,F,]2 [=A,E]2 | %11
 [B,D]2 !tenuto![B,,,B,,]2 !tenuto![C,,C,]2 !tenuto![D,,D,]2 | [E,,E,]2 [B,EG]2 B,,2 [B,EG]2 | %13
 [E,,E,]2 [B,E]2 [C,,C,]2 [B,C=E]2 | [F,,F,]2 [=A,_E]2 [G,,G,]2 [^G,,^G,]2 | %15
 [=A,,=A,]2 [F,,F,]2 [=E,,=E,]2 [_E,,_E,]2 | [D,,D,]2 [A,B,D]2 B,,2 [A,B,D]2 | %17
 [D,,D,]2 [A,B,D]2 [B,,,B,,]2 [A,B,D]2 | [E,,E,]2 !>![_D,_C]4 !>![D,C]2 |1 %19
 !>![E,B,]2 !>![B,,,B,,]2 !>![C,,C,]2 !>![D,,D,]2 :|2 !>![E,B,]2 z2 !>![G,,G,]4 |: %21
 .[G,D]2 !>![G,D]4 .[G,E]2 | .[G,D]zz.[G,C] z2 .[G,D] z | z .[G,E] z2 .[G,D]z.[G,C] z | %24
 [G,=B,]2 [G,,G,]2 [=A,,=A,]2 [^A,,^A,]2 | [=B,,=B,]2 [G,B,F]2 G,,2 [G,B,F]2 | %26
 [=B,,=B,]2 [G,B,F]2 G,,2 [G,B,F]2 | [=B,,=B,]2 [G,B,F]2 G,,2 [G,B,F]2 | %28
 [=B,,=B,]2 [G,B,F]2 G,,2 [G,B,F]2 | .[G,D]2 !>![G,D]4 .[G,E]2 | .[G,D]zz.[G,C] z2 .[G,D] z | %31
 z .[G,E] z2 .[G,D]z.[G,C] z | [G,=B,]2 [G,,G,]2 [=A,,=A,]2 [^A,,^A,]2 | %33
 [=B,,=B,]2 [G,B,F]2 G,,2 [G,B,F]2 | [=B,,=B,]2 [G,B,F]2 G,,2 [G,B,F]2 | %35
 [=B,,=B,]2 !>![G,,G,]2 !>![=A,,=A,]2 !>![=B,,=B,]2 | !>![C,C]2 z2 !>![C,,C,]2 x2 :| %37
 (3G,A,=A, B,=B,- B,C ^C2 | x8 | x8 | x2 z2 !>![B,,B,]2 z2 || [E,,E,]2 [B,EG]2 B,,2 [B,EG]2 | %42
 [E,,E,]2 [B,E]2 [C,,C,]2 [B,C=E]2 | [F,,F,]2 [=A,_E]2 [G,,G,]2 [^G,,^G,]2 | %44
 [=A,,=A,]2 [F,,F,]2 [=E,,=E,]2 [_E,,_E,]2 | [D,,D,]2 [A,B,D]2 B,,2 [A,B,D]2 | %46
 [D,,D,]2 [A,B,D]2 [B,,,B,,]2 [A,B,D]2 | [E,,E,]2 [B,E]2 [F,,F,]2 [=A,E]2 | %48
 [B,D]2 !tenuto![B,,,B,,]2 !tenuto![C,,C,]2 !tenuto![D,,D,]2 | [E,,E,]2 [B,EG]2 B,,2 [B,EG]2 | %50
 [E,,E,]2 [B,E]2 [C,,C,]2 [B,C=E]2 | [F,,F,]2 [=A,_E]2 [G,,G,]2 [^G,,^G,]2 | %52
 [=A,,=A,]2 [F,,F,]2 [=E,,=E,]2 [_E,,_E,]2 | [D,,D,]2 [A,B,D]2 B,,2 [A,B,D]2 | %54
 [D,,D,]2 [A,B,D]2 [B,,,B,,]2 [A,B,D]2 | [E,,E,]2 !>![_D,_C]4 !>![D,C]2 | %56
 !>![E,B,]2 z2 !>![E,,E,]2 z2 ||[K:Ab] _D2 z C- Cz.C z | _E2 z =D- Dz.D z | F2 z =E- Ez.E z | %60
 _E2 z2 !>![E,,E,]2 z2 |: [B,,G,]2 [DEG]2 [E,,E,]2 [DEG]2 | [G,,E,]2 [DEG]2 [E,,E,]2 [E,G,D]2 | %63
 [A,,A,]2 [A,CE]2 [E,,E,]2 [A,CE]2 | [A,,A,]2 [A,CE]2 [C,C]2 [_C,_C]2 | %65
 [B,,B,]2 [DEG]2 [E,,E,]2 [DEG]2 | [B,,B,]2 [DEG]2 [E,,E,]2 [DEG]2 | %67
 [A,,A,]2 [A,CE]2 [F,,F,]2 [G,,G,]2 | [A,,A,]2 [G,,G,]2 [F,,F,]2 [E,,E,]2 | %69
 [B,,G,]2 [DEG]2 [E,,E,]2 [DEG]2 | [G,,E,]2 [DEG]2 [E,,E,]2 [E,G,D]2 | %71
 [A,,A,]2 [A,CE]2 [E,,E,]2 [A,CE]2 | [A,,A,]2 [A,CE]2 [C,C]2 [_C,_C]2 | %73
 [=A,,=A,]2 [A,EF]2 [F,,F,]2 [A,EF]2 | F,,2 [_A,B,=D]2 [B,,,B,,]2 [A,B,D]2 | %75
 z2 E,2 [F,,F,]2 [G,,G,]2 | [A,,A,]2 z2 !>![A,,,A,,]2 z2 :| %77
V:3
 (3E,=E,F, ^F,G,- G,_A, =A,2 | x8 | x8 | x8 |: x8 | x8 | x8 | x8 | x8 | x8 | x8 | x8 | x8 | x8 | %14
 x8 | x8 | x8 | x8 | x8 |1 x8 :|2 x8 |: x8 | x8 | x8 | x8 | x8 | x8 | x8 | x8 | x8 | x8 | x8 | x8 | %33
 x8 | x8 | x8 | x8 :| (3E,=E,F, ^F,G,- G,_A, =A,2 | x8 | x8 | x8 || x8 | x8 | x8 | x8 | x8 | x8 | %47
 x8 | x8 | x8 | x8 | x8 | x8 | x8 | x8 | x8 | x8 ||[K:Ab] x8 | x8 | x8 | x8 |: x8 | x8 | x8 | x8 | %65
 x8 | x8 | x8 | x8 | x8 | x8 | x8 | x8 | x8 | x8 | E,,6 x2 | x8 :| %77
V:4
 x8 | (3B,=B,C ^CD- D_E =E2 | F2 ^F G2 _A =A2 | B2 x6 |: x8 | x8 | x7 =A- | A4- A2 x2 | x8 | x8 | %10
 x8 | x8 | x8 | x8 | x7 =A- | A4- A2 x2 | (3bc'b =a_a- af a2 | (3fgf dB- x4 | x8 |1 x8 :|2 x8 |: %21
 x8 | x8 | x8 | x8 | x8 | x8 | x8 | x8 | x8 | x8 | x8 | x8 | x8 | x8 | x8 | x8 :| x8 | %38
 (3B,=B,C ^CD- D_E =E2 | F2 ^F G2 _A =A2 | B2 x6 || x8 | x8 | x7 =A- | A4- A2 x2 | x8 | x8 | x8 | %48
 x8 | x8 | x8 | x7 =A- | A4- A2 x2 | (3bc'b =a_a- af a2 | (3fgf dB- x4 | x8 | x8 ||[K:Ab] x8 | x8 | %59
 x8 | x8 |: x8 | x8 | x8 | x8 | (3efe =d_d- dGe=d | x8 | x8 | x8 | x8 | x8 | x8 | x8 | %73
 (3efe =d_d- d=B c2 | (3BcB =A_A- AG F2 | x8 | x8 :| %77

